app/images/icons/share-icon.svg

<svg fill="none" height="27" viewBox="0 0 21 27" width="21" xmlns="http://www.w3.org/2000/svg"><g stroke="#117cb6" stroke-linecap="round" stroke-linejoin="round" stroke-width="1.5"><path d="m16.4062 9.28125h1.6876c.9319 0 1.6874.75555 1.6874 1.68755v13.5c0 .9319-.7555 1.6874-1.6874 1.6874h-15.18755c-.93198 0-1.6875-.7555-1.6875-1.6874v-13.5c0-.932.75552-1.68755 1.6875-1.68755h1.6875"/><path d="m10.5.84375v11.81245"/><path d="m6.28125 5.0625 4.21875-4.21875 4.2188 4.21875"/></g></svg>

<svg width="21" height="27" viewBox="0 0 21 27" fill="none" xmlns="http://www.w3.org/2000/svg">
<path d="M16.4062 9.28125H18.0938C19.0257 9.28125 19.7812 10.0368 19.7812 10.9688V24.4688C19.7812 25.4007 19.0257 26.1562 18.0938 26.1562H2.90625C1.97427 26.1562 1.21875 25.4007 1.21875 24.4688V10.9688C1.21875 10.0368 1.97427 9.28125 2.90625 9.28125H4.59375" stroke="#117CB6" stroke-width="1.5" stroke-linecap="round" stroke-linejoin="round"/>
<path d="M10.5 0.84375V12.6562" stroke="#117CB6" stroke-width="1.5" stroke-linecap="round" stroke-linejoin="round"/>
<path d="M6.28125 5.0625L10.5 0.84375L14.7188 5.0625" stroke="#117CB6" stroke-width="1.5" stroke-linecap="round" stroke-linejoin="round"/>
</svg>
